icon-themes/sifr_svg/cmd/lc_cut.svg

<svg viewBox="0 0 24 24" xmlns="http://www.w3.org/2000/svg"><path d="m4 2v3l6 8.572266v2.427734h-.5410156a4 4 0 0 0 -3.4589844-2 4 4 0 0 0 -4 4 4 4 0 0 0 4 4 4 4 0 0 0 3.8691406-3h4.2636714a4 4 0 0 0 3.867188 3 4 4 0 0 0 4-4 4 4 0 0 0 -4-4 4 4 0 0 0 -3.458984 2h-.541016v-2.427734l6-8.572266v-3h-2l-6 10-6-10zm2 14a2 2 0 0 1 2 2 2 2 0 0 1 -2 2 2 2 0 0 1 -2-2 2 2 0 0 1 2-2zm12 0a2 2 0 0 1 2 2 2 2 0 0 1 -2 2 2 2 0 0 1 -2-2 2 2 0 0 1 2-2z" fill="#555753"/></svg>

<svg xmlns="http://www.w3.org/2000/svg" viewBox="0 0 24 24">
  <path
     style="fill:#555753"
     d="M 4 2 L 4 5 L 10 13.572266 L 10 16 L 9.4589844 16 A 4 4 0 0 0 6 14 A 4 4 0 0 0 2 18 A 4 4 0 0 0 6 22 A 4 4 0 0 0 9.8691406 19 L 14.132812 19 A 4 4 0 0 0 18 22 A 4 4 0 0 0 22 18 A 4 4 0 0 0 18 14 A 4 4 0 0 0 14.541016 16 L 14 16 L 14 13.572266 L 20 5 L 20 2 L 18 2 L 12 12 L 6 2 L 4 2 z M 6 16 A 2 2 0 0 1 8 18 A 2 2 0 0 1 6 20 A 2 2 0 0 1 4 18 A 2 2 0 0 1 6 16 z M 18 16 A 2 2 0 0 1 20 18 A 2 2 0 0 1 18 20 A 2 2 0 0 1 16 18 A 2 2 0 0 1 18 16 z "
     />
</svg>
